icons/circle/48/voxelands.svg

<svg xmlns="http://www.w3.org/2000/svg" viewBox="0 0 48 48">
 <defs>
  <linearGradient id="linearGradient3764" x1="1" x2="47" gradientUnits="userSpaceOnUse" gradientTransform="matrix(0,-1,1,0,-1.5e-6,47.999998)">
   <stop style="stop-color:#2c9a4b;stop-opacity:1"/>
   <stop offset="1" style="stop-color:#30aa53;stop-opacity:1"/>
  </linearGradient>
 </defs>
 <g>
  <path d="m 36.31 5 c 5.859 4.062 9.688 10.831 9.688 18.5 c 0 12.426 -10.07 22.5 -22.5 22.5 c -7.669 0 -14.438 -3.828 -18.5 -9.688 c 1.037 1.822 2.306 3.499 3.781 4.969 c 4.085 3.712 9.514 5.969 15.469 5.969 c 12.703 0 23 -10.298 23 -23 c 0 -5.954 -2.256 -11.384 -5.969 -15.469 c -1.469 -1.475 -3.147 -2.744 -4.969 -3.781 z m 4.969 3.781 c 3.854 4.113 6.219 9.637 6.219 15.719 c 0 12.703 -10.297 23 -23 23 c -6.081 0 -11.606 -2.364 -15.719 -6.219 c 4.16 4.144 9.883 6.719 16.219 6.719 c 12.703 0 23 -10.298 23 -23 c 0 -6.335 -2.575 -12.06 -6.719 -16.219 z" style="opacity:0.05"/>
  <path d="m 41.28 8.781 c 3.712 4.085 5.969 9.514 5.969 15.469 c 0 12.703 -10.297 23 -23 23 c -5.954 0 -11.384 -2.256 -15.469 -5.969 c 4.113 3.854 9.637 6.219 15.719 6.219 c 12.703 0 23 -10.298 23 -23 c 0 -6.081 -2.364 -11.606 -6.219 -15.719 z" style="opacity:0.1"/>
  <path d="m 31.25 2.375 c 8.615 3.154 14.75 11.417 14.75 21.13 c 0 12.426 -10.07 22.5 -22.5 22.5 c -9.708 0 -17.971 -6.135 -21.12 -14.75 a 23 23 0 0 0 44.875 -7 a 23 23 0 0 0 -16 -21.875 z" style="opacity:0.2"/>
 </g>
 <g>
  <path d="m 24 1 c 12.703 0 23 10.297 23 23 c 0 12.703 -10.297 23 -23 23 -12.703 0 -23 -10.297 -23 -23 0 -12.703 10.297 -23 23 -23 z" style="fill:url(#linearGradient3764);fill-opacity:1"/>
 </g>
 <g>
  <path d="m 40.03 7.531 c 3.712 4.084 5.969 9.514 5.969 15.469 0 12.703 -10.297 23 -23 23 c -5.954 0 -11.384 -2.256 -15.469 -5.969 4.178 4.291 10.01 6.969 16.469 6.969 c 12.703 0 23 -10.298 23 -23 0 -6.462 -2.677 -12.291 -6.969 -16.469 z" style="opacity:0.1"/>
 </g>
 <g transform="matrix(1.009009,0,0,1,0.28378391,0)">
  <g>
   <!-- color: #eeeeee -->
  </g>
 </g>
 <g transform="translate(-3.885669e-7,-1.4547813e-6)">
  <g transform="matrix(0.97764644,0,0,0.98777777,-0.8564059,-4.9133331)" style="fill:#000;opacity:0.1;fill-opacity:1">
   <path d="m 25 11 -12 7 0 14 12 7 12 -7 0 -14 z" transform="matrix(1.0228647,0,0,1.0123735,0.87598734,4.974128)" style="stroke:none;fill-rule:evenodd"/>
  </g>
  <g transform="matrix(0.97764644,0,0,0.98777777,-1.8564059,-5.913333)">
   <path d="m 24 10 -12 7 12 21 12 -21" transform="matrix(1.0228647,0,0,1.0123735,1.898852,5.9865014)" style="fill:#c4c4c4;fill-opacity:1;stroke:none;fill-rule:evenodd"/>
   <path d="m 36 17 -12 7 c -1.306 4.667 -0.648 9.333 0 14 l 12 -7 z" transform="matrix(1.0228647,0,0,1.0123735,1.898852,5.9865014)" style="fill:#a0a0a0;fill-opacity:1;stroke:none;fill-rule:evenodd"/>
   <path d="m 12 17 0 13.996 12 7 0 -14" transform="matrix(1.0228647,0,0,1.0123735,1.898852,5.9865014)" style="fill:#b4b4b4;fill-opacity:1;stroke:none;fill-rule:evenodd"/>
   <path d="m 24 12.316 -8.03 4.684 8.03 4.686 8.03 -4.686 -8.03 -4.684 m -10 8.17 0 9.365 8 4.666 0 -9.369 -8 -4.662 z m 20 0 -8 4.662 0 9.369 8 -4.666 0 -9.365 z" transform="matrix(1.0228647,0,0,1.0123735,1.898852,5.9865014)" style="fill:#000;opacity:1;fill-opacity:0.098;stroke:none;fill-rule:evenodd"/>
  </g>
 </g>
</svg>

<svg xmlns="http://www.w3.org/2000/svg" viewBox="0 0 48 48">
  <defs>
    <linearGradient id="a" x1="1" x2="47" gradientUnits="userSpaceOnUse" gradientTransform="rotate(-90 24 24)">
      <stop stop-color="#2c9a4b"/>
      <stop offset="1" stop-color="#30aa53"/>
    </linearGradient>
  </defs>
  <path d="M36.31 5c5.859 4.062 9.688 10.831 9.688 18.5 0 12.426-10.07 22.5-22.5 22.5-7.669 0-14.438-3.828-18.5-9.688a23.24 23.24 0 0 0 3.781 4.969 22.923 22.923 0 0 0 15.469 5.969c12.703 0 23-10.298 23-23a22.92 22.92 0 0 0-5.969-15.469A23.216 23.216 0 0 0 36.31 5zm4.969 3.781A22.911 22.911 0 0 1 47.498 24.5c0 12.703-10.297 23-23 23a22.909 22.909 0 0 1-15.719-6.219C12.939 45.425 18.662 48 24.998 48c12.703 0 23-10.298 23-23 0-6.335-2.575-12.06-6.719-16.219z" opacity=".05"/>
  <path d="M41.28 8.781a22.923 22.923 0 0 1 5.969 15.469c0 12.703-10.297 23-23 23A22.92 22.92 0 0 1 8.78 41.281 22.911 22.911 0 0 0 24.499 47.5c12.703 0 23-10.298 23-23A22.909 22.909 0 0 0 41.28 8.781z" opacity=".1"/>
  <path d="M31.25 2.375C39.865 5.529 46 13.792 46 23.505c0 12.426-10.07 22.5-22.5 22.5-9.708 0-17.971-6.135-21.12-14.75a23 23 0 0 0 44.875-7 23 23 0 0 0-16-21.875z" opacity=".2"/>
  <path d="M24 1c12.703 0 23 10.297 23 23S36.703 47 24 47 1 36.703 1 24 11.297 1 24 1z" fill="url(#a)"/>
  <path d="M40.03 7.531A22.922 22.922 0 0 1 45.999 23c0 12.703-10.297 23-23 23A22.92 22.92 0 0 1 7.53 40.031C11.708 44.322 17.54 47 23.999 47c12.703 0 23-10.298 23-23 0-6.462-2.677-12.291-6.969-16.469z" opacity=".1"/>
  <g>
    <path d="M25 11l-12 7v14l12 7 12-7V18z" fill-rule="evenodd" opacity=".1"/>
    <g fill-rule="evenodd">
      <path d="M24 10l-12 7 12 21 12-21" fill="#c4c4c4"/>
      <path d="M36 17l-12 7c-1.306 4.667-.648 9.333 0 14l12-7z" fill="#a0a0a0"/>
      <path d="M12 17v13.996l12 7v-14" fill="#b4b4b4"/>
      <path d="M24 12.316L15.97 17 24 21.686 32.03 17 24 12.316m-10 8.17v9.365l8 4.666v-9.369l-8-4.662zm20 0l-8 4.662v9.369l8-4.666v-9.365z" fill-opacity=".098"/>
    </g>
  </g>
</svg>
